X:1
T:Old Hundredth
C:Louis Bourgeois (attributed), 1551
M:4/4
L:1/4
K:G
G G A B | c B A G | A B c d | c B A2 |
G G A B | c B A G | d c B A | G4 |
